assets/images/logo.svg

<svg fill="none" height="40" viewBox="0 0 78 40" width="78" xmlns="http://www.w3.org/2000/svg"><path d="m4.29449 20.9816v-1.9632c0-2.4949 0-4.9898 0-7.4847 0-2.49485-.02045-4.98973-.06135-7.48462l-4.23314-.42945v-3.61963h18.2822c3.3947 0 6.4213.470347 9.0797 1.41104 2.6585.9407 4.8876 2.26994 6.6872 3.98773 1.8405 1.71779 3.2311 3.80368 4.1718 6.25763.9816 2.454 1.4724 5.1739 1.4724 8.1596 0 3.1492-.5113 5.9713-1.5338 8.4662s-2.5153 4.6217-4.4785 6.3804c-1.9223 1.7178-4.274 3.047-7.0552 3.9877-2.7812.8998-5.91 1.3497-9.3865 1.3497h-17.2393v-3.6196l4.23314-.4295c.0409-2.454.06135-4.9284.06135-7.4233s0-5.0102 0-7.546zm12.14721-.0614v7.6688c0 2.4948.0409 5.0306.1227 7.6073h.8589c3.0266 0 5.4397-1.3906 7.2393-4.1718 1.8405-2.8221 2.7607-6.8507 2.7607-12.0858 0-5.2761-.9202-9.2843-2.7607-12.02459-1.7996-2.74029-4.2332-4.11043-7.3006-4.11043h-.7976c-.0818 2.49489-.1227 5.01023-.1227 7.54602v7.6687z" fill="#000"/><path d="m4.29449 20.9816v-1.9632c0-2.4949 0-4.9898 0-7.4847 0-2.49485-.02045-4.98973-.06135-7.48462l-4.23314-.42945v-3.61963h18.2822c3.3947 0 6.4213.470347 9.0797 1.41104 2.6585.9407 4.8876 2.26994 6.6872 3.98773 1.8405 1.71779 3.2311 3.80368 4.1718 6.25763.9816 2.454 1.4724 5.1739 1.4724 8.1596 0 3.1492-.5113 5.9713-1.5338 8.4662s-2.5153 4.6217-4.4785 6.3804c-1.9223 1.7178-4.274 3.047-7.0552 3.9877-2.7812.8998-5.91 1.3497-9.3865 1.3497h-17.2393v-3.6196l4.23314-.4295c.0409-2.454.06135-4.9284.06135-7.4233s0-5.0102 0-7.546zm12.14721-.0614v7.6688c0 2.4948.0409 5.0306.1227 7.6073h.8589c3.0266 0 5.4397-1.3906 7.2393-4.1718 1.8405-2.8221 2.7607-6.8507 2.7607-12.0858 0-5.2761-.9202-9.2843-2.7607-12.02459-1.7996-2.74029-4.2332-4.11043-7.3006-4.11043h-.7976c-.0818 2.49489-.1227 5.01023-.1227 7.54602v7.6687z" fill="#496397" fill-opacity=".2"/><path d="m40.2328 20.9816v-1.9632c0-2.4949 0-4.9898 0-7.4847 0-2.49485-.0205-4.98973-.0614-7.48462l-4.2331-.42945v-3.61963h20.184v3.61963l-4.2331.42945c-.0409 2.45399-.0613 4.92842-.0613 7.42332v7.546 1.1656l12.7607-15.82817-3.8037-.7362v-3.61963h14.2331v3.61963l-5.7055.7362-7.362 8.65027 12.0246 23.0062 3.3742.3681v3.6196h-18.5276v-3.6196l2.0859-.2454-6.6871-13.9878-2.3926 2.8221v5.5215c0 1.8405.0204 3.681.0613 5.5215l3.3129.3681v3.6196h-19.2638v-3.6196l4.2331-.4295c.0409-2.454.0614-4.9284.0614-7.4233s0-5.0102 0-7.546z" fill="#000"/><path d="m40.2328 20.9816v-1.9632c0-2.4949 0-4.9898 0-7.4847 0-2.49485-.0205-4.98973-.0614-7.48462l-4.2331-.42945v-3.61963h20.184v3.61963l-4.2331.42945c-.0409 2.45399-.0613 4.92842-.0613 7.42332v7.546 1.1656l12.7607-15.82817-3.8037-.7362v-3.61963h14.2331v3.61963l-5.7055.7362-7.362 8.65027 12.0246 23.0062 3.3742.3681v3.6196h-18.5276v-3.6196l2.0859-.2454-6.6871-13.9878-2.3926 2.8221v5.5215c0 1.8405.0204 3.681.0613 5.5215l3.3129.3681v3.6196h-19.2638v-3.6196l4.2331-.4295c.0409-2.454.0614-4.9284.0614-7.4233s0-5.0102 0-7.546z" fill="#496397" fill-opacity=".2"/><path d="m31.3611 26.1361c1.7887 1.574 3.9463 2.3539 6.3909 2.3539 2.4444 0 4.6022-.7798 6.3909-2.3539 1.8419-1.6209 2.7591-3.75 2.7591-6.2561 0-2.5004-.913-4.6256-2.7466-6.245-1.7837-1.6357-3.9454-2.455-6.4034-2.455-2.4581 0-4.6197.8193-6.4034 2.455-1.8335 1.6194-2.7465 3.7446-2.7465 6.245 0 2.5061.9171 4.6352 2.759 6.2561z" fill="#fde100" stroke="#f6f7f8" stroke-width="3"/></svg>

<svg width="78" height="40" viewBox="0 0 78 40" fill="none" xmlns="http://www.w3.org/2000/svg">
<path d="M4.29449 20.9816V19.0184C4.29449 16.5235 4.29449 14.0286 4.29449 11.5337C4.29449 9.03885 4.27404 6.54397 4.23314 4.04908L0 3.61963V0H18.2822C21.6769 0 24.7035 0.470347 27.3619 1.41104C30.0204 2.35174 32.2495 3.68098 34.0491 5.39877C35.8896 7.11656 37.2802 9.20245 38.2209 11.6564C39.2025 14.1104 39.6933 16.8303 39.6933 19.816C39.6933 22.9652 39.182 25.7873 38.1595 28.2822C37.137 30.7771 35.6442 32.9039 33.681 34.6626C31.7587 36.3804 29.407 37.7096 26.6258 38.6503C23.8446 39.5501 20.7158 40 17.2393 40H0V36.3804L4.23314 35.9509C4.27404 33.4969 4.29449 31.0225 4.29449 28.5276C4.29449 26.0327 4.29449 23.5174 4.29449 20.9816ZM16.4417 20.9202C16.4417 23.4969 16.4417 26.0532 16.4417 28.589C16.4417 31.0838 16.4826 33.6196 16.5644 36.1963H17.4233C20.4499 36.1963 22.863 34.8057 24.6626 32.0245C26.5031 29.2024 27.4233 25.1738 27.4233 19.9387C27.4233 14.6626 26.5031 10.6544 24.6626 7.91411C22.863 5.17382 20.4294 3.80368 17.362 3.80368H16.5644C16.4826 6.29857 16.4417 8.81391 16.4417 11.3497C16.4417 13.8855 16.4417 16.4417 16.4417 19.0184V20.9202Z" fill="black"/>
<path d="M4.29449 20.9816V19.0184C4.29449 16.5235 4.29449 14.0286 4.29449 11.5337C4.29449 9.03885 4.27404 6.54397 4.23314 4.04908L0 3.61963V0H18.2822C21.6769 0 24.7035 0.470347 27.3619 1.41104C30.0204 2.35174 32.2495 3.68098 34.0491 5.39877C35.8896 7.11656 37.2802 9.20245 38.2209 11.6564C39.2025 14.1104 39.6933 16.8303 39.6933 19.816C39.6933 22.9652 39.182 25.7873 38.1595 28.2822C37.137 30.7771 35.6442 32.9039 33.681 34.6626C31.7587 36.3804 29.407 37.7096 26.6258 38.6503C23.8446 39.5501 20.7158 40 17.2393 40H0V36.3804L4.23314 35.9509C4.27404 33.4969 4.29449 31.0225 4.29449 28.5276C4.29449 26.0327 4.29449 23.5174 4.29449 20.9816ZM16.4417 20.9202C16.4417 23.4969 16.4417 26.0532 16.4417 28.589C16.4417 31.0838 16.4826 33.6196 16.5644 36.1963H17.4233C20.4499 36.1963 22.863 34.8057 24.6626 32.0245C26.5031 29.2024 27.4233 25.1738 27.4233 19.9387C27.4233 14.6626 26.5031 10.6544 24.6626 7.91411C22.863 5.17382 20.4294 3.80368 17.362 3.80368H16.5644C16.4826 6.29857 16.4417 8.81391 16.4417 11.3497C16.4417 13.8855 16.4417 16.4417 16.4417 19.0184V20.9202Z" fill="#496397" fill-opacity="0.2"/>
<path d="M40.2328 20.9816V19.0184C40.2328 16.5235 40.2328 14.0286 40.2328 11.5337C40.2328 9.03885 40.2123 6.54397 40.1714 4.04908L35.9383 3.61963V0H56.1223V3.61963L51.8892 4.04908C51.8483 6.50307 51.8279 8.9775 51.8279 11.4724C51.8279 13.9673 51.8279 16.4826 51.8279 19.0184V20.184L64.5886 4.35583L60.7849 3.61963V0H75.018V3.61963L69.3125 4.35583L61.9505 13.0061L73.9751 36.0123L77.3493 36.3804V40H58.8217V36.3804L60.9076 36.135L54.2205 22.1472L51.8279 24.9693C51.8279 26.8098 51.8279 28.6503 51.8279 30.4908C51.8279 32.3313 51.8483 34.1718 51.8892 36.0123L55.2021 36.3804V40H35.9383V36.3804L40.1714 35.9509C40.2123 33.4969 40.2328 31.0225 40.2328 28.5276C40.2328 26.0327 40.2328 23.5174 40.2328 20.9816Z" fill="black"/>
<path d="M40.2328 20.9816V19.0184C40.2328 16.5235 40.2328 14.0286 40.2328 11.5337C40.2328 9.03885 40.2123 6.54397 40.1714 4.04908L35.9383 3.61963V0H56.1223V3.61963L51.8892 4.04908C51.8483 6.50307 51.8279 8.9775 51.8279 11.4724C51.8279 13.9673 51.8279 16.4826 51.8279 19.0184V20.184L64.5886 4.35583L60.7849 3.61963V0H75.018V3.61963L69.3125 4.35583L61.9505 13.0061L73.9751 36.0123L77.3493 36.3804V40H58.8217V36.3804L60.9076 36.135L54.2205 22.1472L51.8279 24.9693C51.8279 26.8098 51.8279 28.6503 51.8279 30.4908C51.8279 32.3313 51.8483 34.1718 51.8892 36.0123L55.2021 36.3804V40H35.9383V36.3804L40.1714 35.9509C40.2123 33.4969 40.2328 31.0225 40.2328 28.5276C40.2328 26.0327 40.2328 23.5174 40.2328 20.9816Z" fill="#496397" fill-opacity="0.2"/>
<path d="M31.3611 26.1361C33.1498 27.7101 35.3074 28.49 37.752 28.49C40.1964 28.49 42.3542 27.7102 44.1429 26.1361C45.9848 24.5152 46.902 22.3861 46.902 19.88C46.902 17.3796 45.989 15.2544 44.1554 13.635C42.3717 11.9993 40.21 11.18 37.752 11.18C35.2939 11.18 33.1323 11.9993 31.3486 13.635C29.5151 15.2544 28.6021 17.3796 28.6021 19.88C28.6021 22.3861 29.5192 24.5152 31.3611 26.1361Z" fill="#FDE100" stroke="#F6F7F8" stroke-width="3"/>
</svg>
